X:7072
T:The Melancholy Child
R:jig
C:Paul S.Cranford
D:The Lighthouse, Cranford Publications
B:The Lighthouse Collection, ISBN 0-9691181-5-5
N:Contacts ...
N:..... Cranford Publications <http://www.cranfordpub.com>
Q:300
O:England
L:1/8
M:6/8
K:Edor
B,|:EGF G2 E|DB,C DEF|EGF GAB|AFD DFD|
EGF G2 E|DB,C DEF|Eed BGA|BAF E3:|
egf g2 e|dBc def|egf gab|afd dfd|
egf g2 e|dBc def|edB def|baf e2 f|
egf g2 e|dBc def|egf eBc|dAG FED|
EGF GAB|AFD FGA|Bba fed|BAF E2|]


